X: 1
T:Gypsy Hornpipe
R:Hornpipe
M:4/4
L:1/8
N:Dance Music, 1820-1850
O:England
A:Yorkshire
Z:Warren Armstrong
B:"The Fiddler of Helperby", Dragonfly Music, ISBN 1-872277-18-7, 1994.
K:A
E2|\
"A"A2 AB Acec|"D"defg agag|"A"ecAc ecAc|"E"dBGB dBGB|
"A"A2 AB Acec|"D"defg agaf|"A"ea"D"fd "A"cA"E"BG|"A"A2 A2 A2 :|
|:cd|\
"A"efed deae|"D"fefg "A"a2 ag|"D"fa"A"ea "D"fa"A"ea|"D"fgaf "E"edcB|
"A"A2 AB Acec|"D"defg agaf|"A"ea"D"fd "A"cA"E"BG|"A"A2 A2 A2:|
